X: 38021
T: 1. The Hill O'Nigg  2X
R: strathspey
C: J.S.Skinner
B: RSCDS 38-2
Z: Chords by Robin Shaylor, August 2004
M: C
L: 1/8
%
Q: 220
%--------------------
K: C
|: F |\
"C" E>FG>_B "F" A2 F>A | "C" G>FE>c "G7" d<D D>F |\
"C7" E>FG>_B "F" A2 F>A |
|1 "G7" G>c B<d "C" c<C C  :|2 "G7" G>c B<g "C" e<c c g ||
"C" c'>e "G9sus4" f<a "C/E" g>c B<c | "Dm" A>c "Dm7/C" G<c "G7/B" d<D D>g  |\
"C" c'>e "G9sus4" f<a "C/E" g>c B<c | "Am" A>c "G7" G<c "C" E<C C> g |
"C" c'>e "G9sus4" f<a "C/E" g>c B<c | "Dm" A/B/c "Dm7/C" G<c "G7/B" d<D D>F  |\
"C7" E>F           G>_B "F" A2 F>A  | "G7" G>c           B<g "C" e<c c   ||
%%center Book38/38021-1_The_Hill_ONigg_2X.abc

%%sep 1 1 500
%%sep 1 1 500

